X:116
M:C|
L:1/8
K:D
d>e f<a e>fd>f|B>d B/A/G/F/ ~E2E||A|d>gf>e d<B B>d|
d>gf>e d<B B>d|A>F F>d A<F F>A|d>ef>a e>fd>f|B>d B/A/G/F/ ~E2E||

